X: 8
T:Big John McNeil
M:4/4
L:1/8
C:Trad.
R:Reel
K:A
A2|A,2 CE FECE|AECE FECE|A,2 CE FECE|FAGF EDCB,|!
A,2 CE FECE|AECE FECE|A,CB,D CEDF|
1EGBd (3cBA A2:||2EGBd (3cBA cd||!
|:eAfA eAcd|eAfA e2 (3agf|eAfA eAce|dece B2 cd|!
eAfA eAcd|eAfA e2 fg|agfe fedc|defg a2 cd:||
